16x16/apps/appimagekit-nuclear.svg

<svg height="16" width="16" xmlns="http://www.w3.org/2000/svg"><path d="m4.75.94 6.054-.049c2.66-.022 3.595 1.907 3.86 4.553l.593 5.954c.122 1.22.288 2.144-.463 2.99a4.786 4.786 0 0 1 -3.594 1.612h-6.4a4.79 4.79 0 0 1 -4.8-4.8v-6.4c0-1.484.666-2.806 1.717-3.685.833-.697 1.858-.165 3.033-.174z" fill="#4d8ee4"/><path d="m4.8 0c-1.33 0-2.53.536-3.397 1.403l13.194 13.194a4.784 4.784 0 0 0 1.403-3.397v-6.4c0-2.66-2.14-4.8-4.8-4.8z" fill="#a54adb"/><g fill="#f4f4f7"><path d="m15.724 13.095h9.453l-2.363 4.093-2.364 4.093-2.363-4.093z" transform="matrix(.61547 0 0 .4886 -4.586 -2.398)"/><path d="m15.724 13.095h9.453l-2.363 4.093-2.364 4.093-2.363-4.093z" transform="matrix(.61547 0 0 .4886 -7.496 1.602)"/><path d="m15.724 13.095h9.453l-2.363 4.093-2.364 4.093-2.363-4.093z" transform="matrix(.61547 0 0 .4886 -1.677 1.602)"/></g></svg>

<svg xmlns="http://www.w3.org/2000/svg" width="16" height="16" version="1"><path style="fill:#4d8ee4" d="m4.75.94 6.054-.049c2.66-.022 3.595 1.907 3.86 4.553l.593 5.954c.122 1.22.288 2.144-.463 2.99A4.786 4.786 0 0 1 11.2 16H4.8A4.79 4.79 0 0 1 0 11.2V4.8c0-1.484.666-2.806 1.717-3.685C2.55.418 3.575.95 4.75.941z"/><path style="fill:#a54adb" d="M4.8 0C3.47 0 2.27.536 1.403 1.403l13.194 13.194A4.784 4.784 0 0 0 16 11.2V4.8C16 2.14 13.86 0 11.2 0z"/><path style="fill:#f4f4f7" transform="matrix(.61547 0 0 .4886 -4.586 -2.398)" d="M15.724 13.095h9.453l-2.363 4.093-2.364 4.093-2.363-4.093z"/><path style="fill:#f4f4f7" transform="matrix(.61547 0 0 .4886 -7.496 1.602)" d="M15.724 13.095h9.453l-2.363 4.093-2.364 4.093-2.363-4.093z"/><path style="fill:#f4f4f7" transform="matrix(.61547 0 0 .4886 -1.677 1.602)" d="M15.724 13.095h9.453l-2.363 4.093-2.364 4.093-2.363-4.093z"/></svg>
